img/illo-gobal-1.svg

<svg fill="none" height="687" viewBox="0 0 828 687" width="828" xmlns="http://www.w3.org/2000/svg"><path d="m485.933 803.613c164.168 0 297.253-132.263 297.253-295.418s-133.085-295.419-297.253-295.419c-164.169 0-297.254 132.264-297.254 295.419s133.085 295.418 297.254 295.418z" stroke="#fff" stroke-width="4.43314"/><path d="m487.125 803.613c82.084 0 148.627-132.263 148.627-295.418s-66.543-295.419-148.627-295.419-148.627 132.264-148.627 295.419 66.543 295.418 148.627 295.418z" stroke="#fff" stroke-width="4.43314"/><path d="m698.731 299.61c-116.55 115.83-305.513 115.83-422.063 0" stroke="#fff" stroke-width="4.43314"/><path d="m276.668 717.923c116.55-115.831 305.513-115.831 422.063 0" stroke="#fff" stroke-width="4.43314"/><path d="m488.312 210.413v595.563" stroke="#fff" stroke-width="4.43314"/><path d="m785.568 510.557h-599.263" stroke="#fff" stroke-width="4.43314"/><path d="m566.139 456.373c-5.251-6.641-4.081-16.239 2.618-21.438 6.696-5.2 16.384-4.032 21.635 2.609l2.759 3.486c6.378 8.061 3.101 19.932-6.53 23.645-6.331 2.441-13.531.485-17.724-4.816z" fill="#0d06c1"/><path d="m613.988 443.717c9.108 5.226 12.228 16.799 6.97 25.851l-25.984 44.731c-6.083 10.467-19.55 14.052-30.085 8.009-11.395-6.539-14.515-21.487-6.675-31.993l30.959-41.483c5.765-7.721 16.437-9.922 24.815-5.115z" fill="#241ed3"/><path d="m419.613 536.047 8.166 12.112c9.603 14.251 26.221 22.211 43.419 20.802l119.296-9.765c8.057-.66 15.355-4.977 19.78-11.701l41.825-63.534c5.489-8.34 3.779-19.448-3.966-25.775-8.05-6.579-19.869-5.764-26.929 1.855l-51.872 55.974-64.809-2.12c-16.934-.553-32.291-10.018-40.319-24.846l-3.054-5.641z" fill="#403add"/><path d="m428.117 585.36c7.888 3.141 11.702 12.034 8.518 19.866-3.184 7.83-12.161 11.632-20.049 8.491l-4.143-1.647c-9.581-3.814-12.713-15.723-6.242-23.723 4.254-5.261 11.476-7.142 17.773-4.637z" fill="#0d06c1"/><path d="m393.048 620.094c-10.516 0-19.041-8.472-19.041-18.923v-51.648c0-12.089 9.859-21.887 22.021-21.887 13.162 0 23.383 11.396 21.878 24.389l-5.941 51.311c-1.108 9.55-9.243 16.758-18.917 16.758z" fill="#241ed3"/><path d="m522.793 423.115-18.012-9.043c-15.566-7.813-34.188-6.532-48.523 3.337l-98.118 67.543c-6.644 4.575-10.794 11.939-11.243 19.96l-4.257 75.807c-.559 9.95 6.511 18.72 16.402 20.353 10.282 1.695 20.106-4.882 22.389-14.991l16.76-74.249 57.192-30.369c14.943-7.936 33.004-7.371 47.418 1.482l5.481 3.368z" fill="#403add"/><path d="m554.467 636.806 57.496-28.442c10.142-5.018 12.007-18.614 3.586-26.16-4.052-3.633-9.681-4.977-14.951-3.569l-31.382 8.385c-24.951 6.67-51.556-1.375-68.561-20.724l-2.521-2.869c-13.048-14.849-.247-37.759 19.328-34.59l74.071 11.994c10.024 1.624 19.702-4.384 22.625-14.045 3.008-9.933-2.083-20.517-11.755-24.435l-160.907-65.209c-57.21-23.187-118.785-33.801-180.492-31.111l-78.671 3.426c-42.562 1.853-76.09 36.663-76.09 78.998 0 50.658 47.232 88.315 96.991 77.326l52.324-11.555c30.991-6.844 63.403-3.218 92.104 10.302l154.495 72.772c16.597 7.816 35.878 7.636 52.31-.494z" fill="#5f5ae0"/><path d="m639.121 481.225-121.777-60.79-41.216 14.373 43.021 44.635c13.779 14.296 4.861 38.033-14.962 39.834l-100.194 9.104c-9.847.895-17.742 8.441-19.017 18.174-1.408 10.751 5.662 20.816 16.318 23.229l214.957 48.676c31.274 7.083 63.244 10.656 95.307 10.656h57.384c40.726 0 73.7-32.732 73.7-73.162 0-46.802-43.58-81.701-89.635-71.78l-33.399 7.196c-27.191 5.859-55.601 2.276-80.487-10.145z" fill="#403add"/><path d="m591.521 540.795-145.171-23.806c-.533-.088-1.011-.369-1.344-.79-24.558-31.057 8.235-74.296 45.038-59.384l112.804 45.717c9.419 3.817 14.377 14.126 11.447 23.801l-.13.438c-2.928 9.666-12.618 15.669-22.644 14.024z" fill="#5f5ae0"/><path d="m608.403 673.629c8.536 0 15.457-6.878 15.457-15.362s-6.921-15.362-15.457-15.362c-8.537 0-15.458 6.878-15.458 15.362s6.921 15.362 15.458 15.362z" fill="#fff500"/><path d="m361.09 668.901c5.91 0 10.701-4.761 10.701-10.635s-4.791-10.635-10.701-10.635-10.701 4.761-10.701 10.635 4.791 10.635 10.701 10.635z" fill="#fff500"/><path d="m487.124 231.683c9.85 0 17.835-7.936 17.835-17.725 0-9.79-7.985-17.726-17.835-17.726s-17.835 7.936-17.835 17.726c0 9.789 7.985 17.725 17.835 17.725z" fill="#fff500"/><path d="m487.123 397.116c5.91 0 10.701-4.762 10.701-10.635 0-5.874-4.791-10.635-10.701-10.635s-10.701 4.761-10.701 10.635c0 5.873 4.791 10.635 10.701 10.635z" fill="#fff500"/><path d="m358.711 364.03c5.91 0 10.701-4.762 10.701-10.635 0-5.874-4.791-10.635-10.701-10.635s-10.701 4.761-10.701 10.635c0 5.873 4.791 10.635 10.701 10.635z" fill="#fff500"/><path d="m613.157 368.757c5.91 0 10.701-4.761 10.701-10.635 0-5.873-4.791-10.635-10.701-10.635s-10.701 4.762-10.701 10.635c0 5.874 4.791 10.635 10.701 10.635z" fill="#fff500"/><path d="m696.389 309.672c5.91 0 10.701-4.761 10.701-10.635 0-5.873-4.791-10.635-10.701-10.635s-10.701 4.762-10.701 10.635c0 5.874 4.791 10.635 10.701 10.635z" fill="#fff500"/><path d="m696.389 338.033c21.67 0 39.237-17.458 39.237-38.995 0-21.536-17.567-38.995-39.237-38.995s-39.238 17.459-39.238 38.995c0 21.537 17.568 38.995 39.238 38.995z" stroke="#fff500" stroke-width="2.21657"/><path d="m275.479 309.672c5.91 0 10.701-4.761 10.701-10.635 0-5.873-4.791-10.635-10.701-10.635-5.911 0-10.702 4.762-10.702 10.635 0 5.874 4.791 10.635 10.702 10.635z" fill="#fff500"/><g stroke="#fff"><path d="m276.721 84.8496v137.3954" stroke-width="2.21657"/><path d="m339.599 153.053h-124.761" stroke-width="2.21657"/><path d="m305.927 180.4-54.837-54.501" stroke-width="2.21657"/><path d="m304.237 125.897-54.838 54.501" stroke-width="2.21657"/><path d="m640.013 37.2764v66.1736" stroke-width="2.21657"/><path d="m669.679 70.7393h-60.088" stroke-width="2.21657"/><path d="m653.026 83.7294-26.411-26.2489" stroke-width="2.21657"/><path d="m653.082 57.4805-26.41 26.2492" stroke-width="2.21657"/></g><path d="m495.446 189.142v-7.09h-16.646v7.09z" fill="#fff500"/></svg>

<svg width="828" height="687" viewBox="0 0 828 687" fill="none" xmlns="http://www.w3.org/2000/svg">
<path d="M485.933 803.613C650.101 803.613 783.186 671.35 783.186 508.195C783.186 345.04 650.101 212.776 485.933 212.776C321.764 212.776 188.679 345.04 188.679 508.195C188.679 671.35 321.764 803.613 485.933 803.613Z" stroke="white" stroke-width="4.43314"/>
<path d="M487.125 803.613C569.209 803.613 635.752 671.35 635.752 508.195C635.752 345.04 569.209 212.776 487.125 212.776C405.041 212.776 338.498 345.04 338.498 508.195C338.498 671.35 405.041 803.613 487.125 803.613Z" stroke="white" stroke-width="4.43314"/>
<path d="M698.731 299.61C582.181 415.44 393.218 415.44 276.668 299.61" stroke="white" stroke-width="4.43314"/>
<path d="M276.668 717.923C393.218 602.092 582.181 602.092 698.731 717.923" stroke="white" stroke-width="4.43314"/>
<path d="M488.312 210.413V805.976" stroke="white" stroke-width="4.43314"/>
<path d="M785.568 510.557H186.305" stroke="white" stroke-width="4.43314"/>
<path d="M566.139 456.373C560.888 449.732 562.058 440.134 568.757 434.935C575.453 429.735 585.141 430.903 590.392 437.544L593.151 441.03C599.529 449.091 596.252 460.962 586.621 464.675C580.29 467.116 573.09 465.16 568.897 459.859L566.139 456.373Z" fill="#0D06C1"/>
<path d="M613.988 443.717C623.096 448.943 626.216 460.516 620.958 469.568L594.974 514.299C588.891 524.766 575.424 528.351 564.889 522.308C553.494 515.769 550.374 500.821 558.214 490.315L589.173 448.832C594.938 441.111 605.61 438.91 613.988 443.717Z" fill="#241ED3"/>
<path d="M419.613 536.047L427.779 548.159C437.382 562.41 454 570.37 471.198 568.961L590.494 559.196C598.551 558.536 605.849 554.219 610.274 547.495L652.099 483.961C657.588 475.621 655.878 464.513 648.133 458.186C640.083 451.607 628.264 452.422 621.204 460.041L569.332 516.015L504.523 513.895C487.589 513.342 472.232 503.877 464.204 489.049L461.15 483.408L419.613 536.047Z" fill="#403ADD"/>
<path d="M428.117 585.36C436.005 588.501 439.819 597.394 436.635 605.226C433.451 613.056 424.474 616.858 416.586 613.717L412.443 612.07C402.862 608.256 399.73 596.347 406.201 588.347C410.455 583.086 417.677 581.205 423.974 583.71L428.117 585.36Z" fill="#0D06C1"/>
<path d="M393.048 620.094C382.532 620.094 374.007 611.622 374.007 601.171V549.523C374.007 537.434 383.866 527.636 396.028 527.636C409.19 527.636 419.411 539.032 417.906 552.025L411.965 603.336C410.857 612.886 402.722 620.094 393.048 620.094Z" fill="#241ED3"/>
<path d="M522.793 423.115L504.781 414.072C489.215 406.259 470.593 407.54 456.258 417.409L358.14 484.952C351.496 489.527 347.346 496.891 346.897 504.912L342.64 580.719C342.081 590.669 349.151 599.439 359.042 601.072C369.324 602.767 379.148 596.19 381.431 586.081L398.191 511.832L455.383 481.463C470.326 473.527 488.387 474.092 502.801 482.945L508.282 486.313L522.793 423.115Z" fill="#403ADD"/>
<path d="M554.467 636.806L611.963 608.364C622.105 603.346 623.97 589.75 615.549 582.204C611.497 578.571 605.868 577.227 600.598 578.635L569.216 587.02C544.265 593.69 517.66 585.645 500.655 566.296L498.134 563.427C485.086 548.578 497.887 525.668 517.462 528.837L591.533 540.831C601.557 542.455 611.235 536.447 614.158 526.786C617.166 516.853 612.075 506.269 602.403 502.351L441.496 437.142C384.286 413.955 322.711 403.341 261.004 406.031L182.333 409.457C139.771 411.31 106.243 446.12 106.243 488.455C106.243 539.113 153.475 576.77 203.234 565.781L255.558 554.226C286.549 547.382 318.961 551.008 347.662 564.528L502.157 637.3C518.754 645.116 538.035 644.936 554.467 636.806Z" fill="#5F5AE0"/>
<path d="M639.121 481.225L517.344 420.435L476.128 434.808L519.149 479.443C532.928 493.739 524.01 517.476 504.187 519.277L403.993 528.381C394.146 529.276 386.251 536.822 384.976 546.555C383.568 557.306 390.638 567.371 401.294 569.784L616.251 618.46C647.525 625.543 679.495 629.116 711.558 629.116H768.942C809.668 629.116 842.642 596.384 842.642 555.954C842.642 509.152 799.062 474.253 753.007 484.174L719.608 491.37C692.417 497.229 664.007 493.646 639.121 481.225Z" fill="#403ADD"/>
<path d="M591.521 540.795L446.35 516.989C445.817 516.901 445.339 516.62 445.006 516.199C420.448 485.142 453.241 441.903 490.044 456.815L602.848 502.532C612.267 506.349 617.225 516.658 614.295 526.333L614.165 526.771C611.237 536.437 601.547 542.44 591.521 540.795Z" fill="#5F5AE0"/>
<path d="M608.403 673.629C616.939 673.629 623.86 666.751 623.86 658.267C623.86 649.783 616.939 642.905 608.403 642.905C599.866 642.905 592.945 649.783 592.945 658.267C592.945 666.751 599.866 673.629 608.403 673.629Z" fill="#FFF500"/>
<path d="M361.09 668.901C367 668.901 371.791 664.14 371.791 658.266C371.791 652.392 367 647.631 361.09 647.631C355.18 647.631 350.389 652.392 350.389 658.266C350.389 664.14 355.18 668.901 361.09 668.901Z" fill="#FFF500"/>
<path d="M487.124 231.683C496.974 231.683 504.959 223.747 504.959 213.958C504.959 204.168 496.974 196.232 487.124 196.232C477.274 196.232 469.289 204.168 469.289 213.958C469.289 223.747 477.274 231.683 487.124 231.683Z" fill="#FFF500"/>
<path d="M487.123 397.116C493.033 397.116 497.824 392.354 497.824 386.481C497.824 380.607 493.033 375.846 487.123 375.846C481.213 375.846 476.422 380.607 476.422 386.481C476.422 392.354 481.213 397.116 487.123 397.116Z" fill="#FFF500"/>
<path d="M358.711 364.03C364.621 364.03 369.412 359.268 369.412 353.395C369.412 347.521 364.621 342.76 358.711 342.76C352.801 342.76 348.01 347.521 348.01 353.395C348.01 359.268 352.801 364.03 358.711 364.03Z" fill="#FFF500"/>
<path d="M613.157 368.757C619.067 368.757 623.858 363.996 623.858 358.122C623.858 352.249 619.067 347.487 613.157 347.487C607.247 347.487 602.456 352.249 602.456 358.122C602.456 363.996 607.247 368.757 613.157 368.757Z" fill="#FFF500"/>
<path d="M696.389 309.672C702.299 309.672 707.09 304.911 707.09 299.037C707.09 293.164 702.299 288.402 696.389 288.402C690.479 288.402 685.688 293.164 685.688 299.037C685.688 304.911 690.479 309.672 696.389 309.672Z" fill="#FFF500"/>
<path d="M696.389 338.033C718.059 338.033 735.626 320.575 735.626 299.038C735.626 277.502 718.059 260.043 696.389 260.043C674.719 260.043 657.151 277.502 657.151 299.038C657.151 320.575 674.719 338.033 696.389 338.033Z" stroke="#FFF500" stroke-width="2.21657"/>
<path d="M275.479 309.672C281.389 309.672 286.18 304.911 286.18 299.037C286.18 293.164 281.389 288.402 275.479 288.402C269.568 288.402 264.777 293.164 264.777 299.037C264.777 304.911 269.568 309.672 275.479 309.672Z" fill="#FFF500"/>
<path d="M276.721 84.8496V222.245" stroke="white" stroke-width="2.21657"/>
<path d="M339.599 153.053H214.838" stroke="white" stroke-width="2.21657"/>
<path d="M305.927 180.4L251.09 125.899" stroke="white" stroke-width="2.21657"/>
<path d="M304.237 125.897L249.399 180.398" stroke="white" stroke-width="2.21657"/>
<path d="M640.013 37.2764V103.45" stroke="white" stroke-width="2.21657"/>
<path d="M669.679 70.7393H609.591" stroke="white" stroke-width="2.21657"/>
<path d="M653.026 83.7294L626.615 57.4805" stroke="white" stroke-width="2.21657"/>
<path d="M653.082 57.4805L626.672 83.7297" stroke="white" stroke-width="2.21657"/>
<path d="M495.446 189.142V182.052H478.8V189.142H495.446Z" fill="#FFF500"/>
</svg>
